X:1
T:Bring Me Little Water, Sylvie
M:6/8
L:1/4
K:A
 E E/2 A A/2| c3/2- c c/2| A A2| z3| E E/2 A A/2| c3/2- c A/2| B3|\
 E E/2 A A/2| c3/2- c c/2| A/2 B3/2- B/2 z/2| A A/2 A A/2| F3/2 E F/2|\
 A3-| A3/2||

